www/assets/icons/inventory.svg

<svg xmlns="http://www.w3.org/2000/svg" width="24" height="24" viewBox="0 0 24 24" fill='currentColor'><path d="M20 2H4c-1 0-2 .9-2 2v3.01c0 .72.43 1.34 1 1.69V20c0 1.1 1.1 2 2 2h14c.9 0 2-.9 2-2V8.7c.57-.35 1-.97 1-1.69V4c0-1.1-1-2-2-2m-5 12H9v-2h6zm5-7H4V4l16-.02z"/></svg>

<svg width="24" height="24" viewBox="0 0 24 24" xmlns="http://www.w3.org/2000/svg" fill='currentColor'><path d="M20 2H4C3 2 2 2.9 2 4V7.01C2 7.73 2.43 8.35 3 8.7V20C3 21.1 4.1 22 5 22H19C19.9 22 21 21.1 21 20V8.7C21.57 8.35 22 7.73 22 7.01V4C22 2.9 21 2 20 2ZM15 14H9V12H15V14ZM20 7H4V4L20 3.98V7Z"/></svg>
